dist/icons/svgs/bars-solid.svg

<svg xmlns="http://www.w3.org/2000/svg" width="24" height="24" fill="currentcolor" class="icon-bars-solid" viewBox="0 0 24 24">
  <path d="M3.25 5.75C3.25 5.08594 3.79688 4.5 4.5 4.5H19.5C20.1641 4.5 20.75 5.08594 20.75 5.75C20.75 6.45312 20.1641 7 19.5 7H4.5C3.79688 7 3.25 6.45312 3.25 5.75ZM3.25 12C3.25 11.3359 3.79688 10.75 4.5 10.75H19.5C20.1641 10.75 20.75 11.3359 20.75 12C20.75 12.7031 20.1641 13.25 19.5 13.25H4.5C3.79688 13.25 3.25 12.7031 3.25 12ZM20.75 18.25C20.75 18.9531 20.1641 19.5 19.5 19.5H4.5C3.79688 19.5 3.25 18.9531 3.25 18.25C3.25 17.5859 3.79688 17 4.5 17H19.5C20.1641 17 20.75 17.5859 20.75 18.25Z"/>
</svg>

<svg xmlns="http://www.w3.org/2000/svg" width="24" height="24" fill="currentColor" class="icon-bars-solid" viewBox="0 0 24 24">
  <path d="M3.25 5.75c0-.664.547-1.25 1.25-1.25h15c.664 0 1.25.586 1.25 1.25 0 .703-.586 1.25-1.25 1.25h-15c-.703 0-1.25-.547-1.25-1.25m0 6.25c0-.664.547-1.25 1.25-1.25h15c.664 0 1.25.586 1.25 1.25 0 .703-.586 1.25-1.25 1.25h-15c-.703 0-1.25-.547-1.25-1.25m17.5 6.25c0 .703-.586 1.25-1.25 1.25h-15c-.703 0-1.25-.547-1.25-1.25 0-.664.547-1.25 1.25-1.25h15c.664 0 1.25.586 1.25 1.25"/>
</svg>
